X: 2
T: Missa L'homme arm\'e / Gloria
N: Derived from Bus1001b-Missa_Lhomme_arme-Gloria.krn
C: Antoine Busnoys
%%abc-version 2.0
%%abcx-abcm2ps-target-version 5.9.1 (29 Sep 2008)
%%abc-creator hum2abc beta
%%abcx-conversion-date 2019/02/16 20:26:06
%%abc-edited-by Jesse Rodin
%%abc-edited-by Rodin, Watson (10/19/2012)
%%abcx-initial-encoding-date 2012/11/19/
%%humdrum-veritas 3533244054
%%humdrum-veritas-data 2866573526
%%linebreak <none>
%%barnumbers 0
L: 1/4
M: 3/1
Q: 1/2=120
%%staves [1 2 3 4]
V: 1 clef=treble
V: 2 clef=treble-8
V: 3 clef=treble-8
V: 4 clef=bass
K: F
[V:1] G12- | 
[V:2] G8G4 | 
[V:3] z12 :
[V:4] z12 | 
[V:1] G4A6G2 | 
[V:2] c8c4 | 
[V:3] z12 :
[V:4] z12 | 
[V:1] G4c6B2 | 
[V:2] B4A6G2 | 
[V:3] z12 | 
[V:4] z12 | 
[V:1] B3GA2G4E2 | 
[V:2] G4z2G2B2c2 | 
[V:3] z12 :
[V:4] z12 | 
[V:1] D2F2G2A3Bc2 | 
[V:2] d4B2c3BA2 | 
[V:3] z12 :
[V:4] z12 | 
[V:1] B2A3GG4^F2 | 
[V:2] G2F2G2B2A4 | 
[V:3] z12 | 
[V:4] z4z4C3D | 
[V:1] G8z4 | 
[V:2] G4z4c3d | 
[V:3] z12 :
[V:4] _E2D4CB,A,4 | 
[V:1] z12 | 
[V:2] _e2d4cBA4 | 
[V:3] z12 :
[V:4] G,3F,G,2E,2F,2G,A, | 
[V:1] z12 | 
[V:2] G3FG2E2F2GA | 
[V:3] z12 | 
[V:4] B,3A,B,2C4B,A, | 
[V:1] z12 | 
[V:2] B3AB2c3BA2 | 
[V:3] z12 :
[V:4] G,2D3C_E3DC2 | 
[V:1] z4z4c4 | 
[V:2] G2c3BG2A4 | 
[V:3] z12 :
[V:4] B,2A,3G,G,4^F,2 | 
[V:1] B2d4c2A2G2 | 
[V:2] G4F4z4 | 
[V:3] z12 | 
[V:4] G,4z4C4 | 
[V:1] B2AGF2A3GE2 | 
[V:2] z12 | 
[V:3] z12 :
[V:4] B,2D4C2A,2G,2 | 
[V:1] DEFGABc3BG2 | 
[V:2] z12 | 
[V:3] z12 :
[V:4] B,2A,G,F,2A,3G,E,2 | 
[V:1] F3GA2B4A2 | 
[V:2] z12 | 
[V:3] z12 | 
[V:4] D,2D4B,2C4 | 
[V:1] B4z2G2A2c2 | 
[V:2] G3AB2c4A2 | 
[V:3] z12 :
[V:4] B,3A,G,2E,2F,4 | 
[V:1] B2d3cBAB2AG | 
[V:2] G2B3cd3Bc2 | 
[V:3] z12 :
[V:4] G,4z4_E,4 | 
[V:1] F2GA2GG3^FFE | 
[V:2] d2c3GB2A4 | 
[V:3] z12 | 
[V:4] D,2E,2F,2G,2D,4 | 
[V:1] G4z4B4 | 
[V:2] G4z2d4e2 | 
[V:3] G8G4 :
[V:4] z2D3CB,4A,G, | 
[V:1] A2c4B2G2A2 | 
[V:2] f3ef2g4f2 | 
[V:3] c8c4 :
[V:4] F,2A,4G,2E,2F,2 | 
[V:1] B2G3FA3E^F2 | 
[V:2] d2cde2c4BA | 
[V:3] B4A8 | 
[V:4] G,4z4C4 | 
[V:1] G4F2B4A2 | 
[V:2] B2d4B2c4 | 
[V:3] G4z4z4 :
[V:4] D2B,3A,G,2F,4 | 
[V:1] B3AB2c2A2GF | 
[V:2] B2d4e2f2g2 | 
[V:3] z12 :
[V:4] z2B,4A,G,F,2E,2 | 
[V:1] E2D4G4^F2 | 
[V:2] c2d3cB2A4 | 
[V:3] z12 | 
[V:4] A,2B,2G,4D,4 | 
[V:1] G4z4G4 | 
[V:2] G2B2A2d4^c2 | 
[V:3] d4d4G4 :
[V:4] G,4F,2D,2E,4 | 
[V:1] F2G2A4B3A | 
[V:2] d3ef4B4- | 
[V:3] z4d4d4 :
[V:4] D,8z4 | 
[V:1] G2F2E3FG2A2 | 
[V:2] B2A2G4z4 | 
[V:3] d4c8 | 
[V:4] B,,4C,3D,E,2F,2 | 
[V:1] B2G2AG^FEF4 | 
[V:2] z4z4d4 | 
[V:3] B4A8 :
[V:4] G,2E,2F,3G,D,4 | 
[V:1] G4z4d4 | 
[V:2] B4c4d4 | 
[V:3] G12- :
[V:4] _E,4C,2C,4=B,,2 | 
[V:1] _e4d2c4=B2 | 
[V:2] c2g3fe2d4 | 
[V:3] G12 | 
[V:4] C,4z4z4 | 
[V:1] c6A2BAGF | 
[V:2] c3de2f4d2 | 
[V:3] z12 :
[V:4] C,6D,2B,,4 | 
[V:1] E3DE2F2G2A2- | 
[V:2] c2g4f2e2d2 | 
[V:3] z12 :
[V:4] C,6D,2E,2F,2- | 
[V:1] A2B4G2F2c2 | 
[V:2] c2B2G2B2A4 | 
[V:3] z12 | 
[V:4] F,2G,3F,G,2A,2F,2 | 
[V:1] B2A3GG4^F2 | 
[V:2] G2F2A2B2A4 | 
[V:3] d4d4d4 :
[V:4] G,2A,2F,2G,2D,4 | 
[V:1] G8z4 | 
[V:2] z4z2G2B2c2 | 
[V:3] G12- :
[V:4] G,2B,2C2D4E2 | 
[V:1] z4B6c2 | 
[V:2] d2e2d2g3fed | 
[V:3] G12 | 
[V:4] D2G3FEDD3C | 
[V:1] d4d2d4c2 | 
[V:2] d3cB3A/G/F3E | 
[V:3] z12 :
[V:4] B,2G,4B,2A,3G, | 
[V:1] B2AGF2G2B2A2 | 
[V:2] G2B2A2G2d3c | 
[V:3] z12 :
[V:4] G,4C2B,2G,2F,2 | 
[V:1] d2c2B2G2A4 | 
[V:2] B2A2G2g4^f2 | 
[V:3] z12 | 
[V:4] B,2C2D2_E2D4 | 
[V:1] G2B3cd4cB | 
[V:2] g6f2d4 | 
[V:3] g8g4 :
[V:4] G,4z2B,4C2 | 
[V:1] A3Bc2d3cA2 | 
[V:2] z12 | 
[V:3] f8f4 :
[V:4] D3CA,2B,3CD2 | 
[V:1] G4z4z4 | 
[V:2] d4B2c3BGA | 
[V:3] g8g4 | 
[V:4] B,2G,4C,2E,3F, | 
[V:1] z4z4A4 | 
[V:2] B6G2A4 | 
[V:3] d12 :
[V:4] G,2D,4G,4^F,2 | 
[V:1] B4G2F2A2B2 | 
[V:2] G2d2e2f4g2 | 
[V:3] z12 :
[V:4] G,4z4z4 | 
[V:1] c2d4B4A2 | 
[V:2] e2f3d_e2c4 | 
[V:3] z12 | 
[V:4] z12 | 
[V:1] B3AG2F2B2A2 | 
[V:2] B2z2B3AG2F2 | 
[V:3] z12 :
[V:4] z12 | 
[V:1] G2c2B2A2d3c | 
[V:2] B2A2G2c2B2A2 | 
[V:3] z12 :
[V:4] z12 | 
[V:1] B2A3GG4^F2 | 
[V:2] d3cBAB2A3G | 
[V:3] z12 | 
[V:4] z4z4C4 | 
[V:1] G8z4 | 
[V:2] G4z2G2B2c2 | 
[V:3] g8g4 :
[V:4] B,4_E,6D,2 | 
[V:1] z4A8 | 
[V:2] d2d4cBA4 | 
[V:3] f8f4 :
[V:4] D,4z4D,4 | 
[V:1] B4G2c4B2 | 
[V:2] G2B2c2e2d4 | 
[V:3] g12 | 
[V:4] G,3F,E,2C,2G,4 | 
[V:1] c2BAG2A4GF | 
[V:2] c4z2c2A2B2 | 
[V:3] z12 :
[V:4] C,3D,E,2F,4E,D, | 
[V:1] E3DE2F4G2 | 
[V:2] c2g4f2d4 | 
[V:3] z12 :
[V:4] C,3B,,C,2D,2B,,4 | 
[V:1] E2A3GG3^FFE | 
[V:2] c4B2G2A4 | 
[V:3] z12 | 
[V:4] C,3D,_E,4D,4 | 
[V:1] G12- | 
[V:2] G12- | 
[V:3] d12- :
[V:4] z4z4G,4 | 
[V:1] G12 ||  
[V:2] G12 ||  
[V:3] d12 ||  
[V:4] G,12 ||  
[V:1]  [K:F] [K:clef=treble][M:2/1]z8 | 
[V:2]  [K:F] [K:clef=treble-8][M:2/1]G6E2 | 
[V:3]  [K:F] [K:clef=treble-8][M:2/1]z8 | 
[V:4]  [K:F] [K:clef=bass][M:2/1]z8 | 
[V:1] z4G4- | 
[V:2] F4G3A | 
[V:3] z8 | 
[V:4] z8 | 
[V:1] G2E2F4 | 
[V:2] B3cA4 | 
[V:3] z8 | 
[V:4] z8 | 
[V:1] G3AB3c | 
[V:2] G4z2d2- | 
[V:3] z8 | 
[V:4] z8 | 
[V:1] A4z2d2- | 
[V:2] d2c2B2AG | 
[V:3] z8 | 
[V:4] z8 | 
[V:1] d2c2B2AG | 
[V:2] F3EG2B2- | 
[V:3] z8 | 
[V:4] z8 | 
[V:1] F4G2B2- | 
[V:2] Bcd2_e2d2- | 
[V:3] z8 | 
[V:4] z8 | 
[V:1] Bcd2_e2d2- | 
[V:2] dcBAc2B2 | 
[V:3] z8 | 
[V:4] z8 | 
[V:1] dcBAB2A2- | 
[V:2] G2d4c2 | 
[V:3] z8 | 
[V:4] z8 | 
[V:1] AGG4^F2 | 
[V:2] d2B2A4 | 
[V:3] z8 | 
[V:4] z8 | 
[V:1] G4z4 | 
[V:2] G8 | 
[V:3] z8 | 
[V:4] D4_E4 | 
[V:1] d4_e4 | 
[V:2] z8 | 
[V:3] z8 | 
[V:4] D2B,2C4 | 
[V:1] d2B2c4 | 
[V:2] d4_e4 | 
[V:3] z8 | 
[V:4] B,4z2A,2 | 
[V:1] B4z2A2 | 
[V:2] d2B2c4 | 
[V:3] z8 | 
[V:4] B,2G,2F,4 | 
[V:1] B2G2F4 | 
[V:2] B2B4A2 | 
[V:3] z8 | 
[V:4] G,4z4 | 
[V:1] G4A4 | 
[V:2] B2G2F2f2- | 
[V:3] z8 | 
[V:4] _E,4D,3C, | 
[V:1] d2c2B2cB | 
[V:2] f2e2d2c2- | 
[V:3] z8 | 
[V:4] D,2E,F,G,2A,2 | 
[V:1] AGG4^F2 | 
[V:2] c2B2A4 | 
[V:3] z8 | 
[V:4] F,2G,2D,4 | 
[V:1] G8 | 
[V:2] G2B3AG2 | 
[V:3] z8 | 
[V:4] z2G,4B,2 | 
[V:1] z4c4 | 
[V:2] F2G4^F2 | 
[V:3] z8 | 
[V:4] A,2G,2A,4 | 
[V:1] B3GB2c2 | 
[V:2] G6A2 | 
[V:3] g8 | 
[V:4] G,4z4 | 
[V:1] d4B2c2 | 
[V:2] B2B4A2 | 
[V:3] d8- | 
[V:4] G,6A,2 | 
[V:1] d2B2c2A2- | 
[V:2] G4F2A2 | 
[V:3] d8- | 
[V:4] B,4A,2F,2 | 
[V:1] A2G4^F2 | 
[V:2] B2G2A4 | 
[V:3] d8 | 
[V:4] G,4D,4 | 
[V:1] G4B4- | 
[V:2] G4g4- | 
[V:3] z8 | 
[V:4] _E,6E,2 | 
[V:1] B2c2d4- | 
[V:2] g4f4 | 
[V:3] z8 | 
[V:4] _E,4D,4 | 
[V:1] (3:2:5d2^c2d2c4=B2 | 
[V:2] e8 | 
[V:3] g8 | 
[V:4] z8 | 
[V:1] d8 | 
[V:2] d8 | 
[V:3] a8- | 
[V:4] D,6E,2 | 
[V:1] c4A4 | 
[V:2] z4f4 | 
[V:3] a8 | 
[V:4] F,3G,A,3B, | 
[V:1] z4c4 | 
[V:2] e4c4 | 
[V:3] g8 | 
[V:4] C3DE2DE | 
[V:1] A4B4 | 
[V:2] d4B4 | 
[V:3] f8 | 
[V:4] F2D3CD2 | 
[V:1] G2c3de2- | 
[V:2] c4A4 | 
[V:3] e8- | 
[V:4] E2C3B,A,2- | 
[V:1] ed^c=Bc4 | 
[V:2] B4A4 | 
[V:3] e8 | 
[V:4] A,2G,2A,4 | 
[V:1] d8 | 
[V:2] F4B4- | 
[V:3] d8- | 
[V:4] D,6G,2- | 
[V:1] z8 | 
[V:2] B2A2G4- | 
[V:3] d8- | 
[V:4] G,2F,2B,4 | 
[V:1] z4A4 | 
[V:2] G2^F4E^F | 
[V:3] d8 | 
[V:4] A,2A,4G,2 | 
[V:1] B4A2A2- | 
[V:2] G4z4 | 
[V:3] z8 | 
[V:4] G,6^F,2- | 
[V:1] A2G2G4 | 
[V:2] c4B4 | 
[V:3] z8 | 
[V:4] F,2E,2G,4 | 
[V:1] c6BA | 
[V:2] A2A4G2 | 
[V:3] z8 | 
[V:4] z4F,4 | 
[V:1] B3cB2AG | 
[V:2] G4B4 | 
[V:3] z8 | 
[V:4] G,6F,2 | 
[V:1] F4G4- | 
[V:2] A4G4 | 
[V:3] z8 | 
[V:4] D,4E,4 | 
[V:1] G2^F4E2 | 
[V:2] A8 | 
[V:3] z8 | 
[V:4] D,8 | 
[V:1] G8 | 
[V:2] B6G2 | 
[V:3] G8- | 
[V:4] z4D4 | 
[V:1] z4B4 | 
[V:2] G4z2G2- | 
[V:3] G8 | 
[V:4] _E4D2D2- | 
[V:1] B4G4 | 
[V:2] GAB4AG | 
[V:3] G8 | 
[V:4] D2CD_EDCB, | 
[V:1] A6c2- | 
[V:2] F4z4 | 
[V:3] c8- | 
[V:4] A,4F,G,A,2- | 
[V:1] c2BAG2F2 | 
[V:2] F4G2A2- | 
[V:3] c8 | 
[V:4] A,2G,F,E,2F,2- | 
[V:1] A2G4FE | 
[V:2] ABc4A2 | 
[V:3] c8 | 
[V:4] F,E,C,2E,2F,2 | 
[V:1] D3EF2G2 | 
[V:2] B3cd2_e2 | 
[V:3] B8 | 
[V:4] G,4z2_E,2 | 
[V:1] A3FA3B | 
[V:2] c2f3ga2- | 
[V:3] A8- | 
[V:4] F,3D,F,3G, | 
[V:1] c2c4A2 | 
[V:2] agg4^f2 | 
[V:3] A8 | 
[V:4] A,3B,C4 | 
[V:1] B4z4 | 
[V:2] g4d4 | 
[V:3] G8- | 
[V:4] D4B,2G,2 | 
[V:1] d4B2G2 | 
[V:2] z4d4 | 
[V:3] G8- | 
[V:4] B,3CD4 | 
[V:1] B3cd4 | 
[V:2] B2G2B3c | 
[V:3] G8 | 
[V:4] G,4z4 | 
[V:1] G2B3AG2 | 
[V:2] d4G2B2 | 
[V:3] z8 | 
[V:4] G,4E,4 | 
[V:1] F4B2A2- | 
[V:2] A2d4c2 | 
[V:3] z8 | 
[V:4] F,2D,2G,2A,2 | 
[V:1] A2d4^c2 | 
[V:2] d2f2e4 | 
[V:3] z8 | 
[V:4] F,2D,2A,4 | 
[V:1] d3cB2AG | 
[V:2] d2d4cB | 
[V:3] z8 | 
[V:4] D,4G,2E,2 | 
[V:1] F2B3cd2- | 
[V:2] A2d3ef2- | 
[V:3] z8 | 
[V:4] F,2G,4F,2 | 
[V:1] d2B4A2 | 
[V:2] f2d2c4 | 
[V:3] z8 | 
[V:4] D,2E,2F,4 | 
[V:1] B3AF2G2- | 
[V:2] B6G2 | 
[V:3] d8 | 
[V:4] B,,8 | 
[V:1] G2F2D4 | 
[V:2] G4B4 | 
[V:3] d8 | 
[V:4] z8 | 
[V:1] z4G4 | 
[V:2] c8 | 
[V:3] G8 | 
[V:4] _E,8 | 
[V:1] F6G2 | 
[V:2] (3d8c2B2 | 
[V:3] z8 | 
[V:4] D,6E,2 | 
[V:1] A2B4AG | 
[V:2] A2G2B4 | 
[V:3] d8 | 
[V:4] F,2G,4F,2 | 
[V:1] F3GA2B2- | 
[V:2] A4z4 | 
[V:3] d8 | 
[V:4] D,3E,F,2G,2- | 
[V:1] BAA2G3F | 
[V:2] z4d3e | 
[V:3] d8 | 
[V:4] G,2A,2B,3A, | 
[V:1] A8 | 
[V:2] f2e2f2a2 | 
[V:3] c8- | 
[V:4] F,2A,4G,F, | 
[V:1] z4A4 | 
[V:2] g4f4 | 
[V:3] c8 | 
[V:4] E,3D,F,4 | 
[V:1] B4G4 | 
[V:2] d2g3f_ed | 
[V:3] B8 | 
[V:4] B,,2_E,3D,E,2 | 
[V:1] A3Bc2A2- | 
[V:2] c3de2f2 | 
[V:3] A8- | 
[V:4] F,2_E,D,C,2D,2- | 
[V:1] AGE2^F4 | 
[V:2] e4d4- | 
[V:3] A8 | 
[V:4] D,2C,2D,4 | 
[V:1] G8- | 
[V:2] d2B2_e4 | 
[V:3] G8- | 
[V:4] z4G,4 | 
[V:1] G8 ||  
[V:2] d8 ||  
[V:3] G8 ||  
[V:4] G,8 ||  
[V:1]  [K:F] [K:clef=treble][M:3/1]G4A2B4G2- | 
[V:2]  [K:F] [K:clef=treble-8][M:3/1]d8-d2e2 | 
[V:3]  [K:F] [K:clef=treble-8][M:3/1]z6G4G2 | 
[V:4]  [K:F] [K:clef=bass][M:3/1]G,8-G,2E,2- | 
[V:1] G2A4G3E^F2 | 
[V:2] g2f3ed4c2 | 
[V:3] c4c2B2A4 | 
[V:4] E,2F,4G,2A,2C2 | 
[V:1] G6z2d2d2 | 
[V:2] z2d2d2G2B3c | 
[V:3] G2z4d2d2G2 | 
[V:4] B,2G,2D2D2G,4- | 
[V:1] G4A2B2A3G | 
[V:2] d3ef2g2e2f2 | 
[V:3] z2d2d2d2c4 | 
[V:4] G,4D,2G,2A,2F,2 | 
[V:1] G4^F2G6- | 
[V:2] d3cA2B6 | 
[V:3] B2A4G6 | 
[V:4] G,2D,4D2D2D2 | 
[V:1] G6z6 | 
[V:2] z6d2d2d2 | 
[V:3] d2d2d2G6 | 
[V:4] G,6B,4G,2 | 
[V:1] d2d2d2G2A4 | 
[V:2] G6g4^f2 | 
[V:3] z12 | 
[V:4] B,3CD2_E2D4 | 
[V:1] B6A6 | 
[V:2] g4d4A4 | 
[V:3] g4g2f4f2 | 
[V:4] G,6D,6 | 
[V:1] B4G2F2A2B2 | 
[V:2] G4B2A2d4 | 
[V:3] g6d6 | 
[V:4] z6D,2F,2G,2 | 
[V:1] c3BAGG6 | 
[V:2] c2f3ed4c2 | 
[V:3] z6g4g2 | 
[V:4] A,4F,2G,2E,4 | 
[V:1] z4A2B4B2 | 
[V:2] d3cA2G6 | 
[V:3] f4f2g4g2 | 
[V:4] D,6z4G,2 | 
[V:1] B4A2F2G2B2 | 
[V:2] z6d4e2 | 
[V:3] d6z4g2 | 
[V:4] G,4F,2B,3A,G,2 | 
[V:1] A4d2d4^c2 | 
[V:2] f4d4z2e2 | 
[V:3] a4g2f2e4 | 
[V:4] F,4G,2D,2A,4 | 
[V:1] d6B2A4 | 
[V:2] f2a3gg4^f2 | 
[V:3] d6z6 | 
[V:4] D,3E,F,2G,2D,4 | 
[V:1] G12 | 
[V:2] g6e6 | 
[V:3] G4G2c4c2 | 
[V:4] E,6C,6 | 
[V:1] z4A2B3AA2 | 
[V:2] f4f2g2d2d2 | 
[V:3] B2A4G2z4 | 
[V:4] D,6z2G,2D2 | 
[V:1] G2d2d2G4A2 | 
[V:2] G2B3cd3ef2 | 
[V:3] d2d2G2z2d2d2 | 
[V:4] D2G,8D,2 | 
[V:1] B2cBAGG3^FFE | 
[V:2] g4f2d4d2 | 
[V:3] d2c4B2A4 | 
[V:4] G,2E,2F,2G,2D,4 | 
[V:1] G12 |]  
[V:2] _e4d2d6 |]  
[V:3] G12 |]  
[V:4] G,12 |]  



